src/assets/icons/media-reading-writing,simple,airpods.svg

<svg width="48" height="48" viewBox="0 0 48 48" fill="none" xmlns="http://www.w3.org/2000/svg">
<rect opacity="0.2" x="5" y="5" width="38" height="38" rx="4" fill="black"/>
<path fill-rule="evenodd" clip-rule="evenodd" d="M17.8658 32V33C17.8658 33.5523 18.3135 34 18.8658 34H21C21.5523 34 22 33.5523 22 33V19.889C22 16.0843 18.9157 13 15.111 13C12.5717 13 10.4494 14.9322 10.2118 17.4604L10.0162 19.5422C9.80092 21.834 11.7572 23.7388 14.0424 23.4624L15.6605 23.2667C16.8331 23.1249 17.8658 24.0403 17.8658 25.2214V30H21.9998V32H17.8658Z" fill="black"/>
<g opacity="0.6">
<path d="M17.8659 30H22.0001V32H17.8659V30Z" fill="black"/>
<path d="M12.6982 19.5C12.6982 18.9186 13.1396 18.5 13.7318 18.5C14.324 18.5 14.7653 18.9186 14.7653 19.5V21C14.7653 21.5814 14.324 22 13.7318 22C13.1396 22 12.6982 21.5814 12.6982 21V19.5Z" fill="black"/>
</g>
<path fill-rule="evenodd" clip-rule="evenodd" d="M30.1342 25.2214V33C30.1342 33.5523 29.6864 34 29.1342 34H26.9999C26.4476 34 25.9999 33.5523 25.9999 33V19.8891C25.9999 16.0843 29.0843 13 32.889 13C35.4283 13 37.5506 14.9322 37.7882 17.4604L37.9838 19.5422C38.1991 21.834 36.2428 23.7388 33.9576 23.4624L32.3395 23.2667C31.1669 23.1249 30.1342 24.0403 30.1342 25.2214ZM26 30H30.1342V32H26V30Z" fill="black"/>
<g opacity="0.6">
<path d="M30.1341 30H25.9999V32H30.1341V30Z" fill="black"/>
<path d="M35.3018 19.5C35.3018 18.9186 34.8604 18.5 34.2682 18.5C33.676 18.5 33.2347 18.9186 33.2347 19.5V21C33.2347 21.5814 33.676 22 34.2682 22C34.8604 22 35.3018 21.5814 35.3018 21V19.5Z" fill="black"/>
</g>
</svg>

<svg xmlns="http://www.w3.org/2000/svg" width="48" height="48" fill="none" viewBox="0 0 48 48">
  <rect width="38" height="38" x="5" y="5" fill="#000" opacity=".2" rx="4"/>
  <path fill="#000" fill-rule="evenodd" d="M17.866 32v1a1 1 0 001 1H21a1 1 0 001-1V19.889A6.89 6.89 0 0015.111 13a4.92 4.92 0 00-4.9 4.46l-.195 2.082a3.609 3.609 0 004.026 3.92l1.619-.195a1.969 1.969 0 012.205 1.954V30H22v2h-4.134z" clip-rule="evenodd"/>
  <g opacity=".6">
    <path fill="#000" d="M17.866 30H22v2h-4.134v-2zM12.698 19.5c0-.581.442-1 1.034-1 .592 0 1.033.419 1.033 1V21c0 .581-.441 1-1.033 1-.592 0-1.034-.419-1.034-1v-1.5z"/>
  </g>
  <g>
    <path fill="#000" fill-rule="evenodd" d="M30.134 25.221V33a1 1 0 01-1 1H27a1 1 0 01-1-1V19.89A6.89 6.89 0 0132.889 13a4.92 4.92 0 014.9 4.46l.195 2.082a3.609 3.609 0 01-4.026 3.92l-1.618-.195a1.969 1.969 0 00-2.206 1.954zM26 30h4.134v2H26v-2z" clip-rule="evenodd"/>
    <g opacity=".6">
      <path fill="#000" d="M30.134 30H26v2h4.134v-2zM35.302 19.5c0-.581-.442-1-1.034-1-.592 0-1.033.419-1.033 1V21c0 .581.441 1 1.033 1 .592 0 1.034-.419 1.034-1v-1.5z"/>
    </g>
  </g>
</svg>
